!!!COM: Mozart, Wolfgang Amadeus
!!!OPR: Quartet in F Major
!!!OTL:
!!!OMV: 2
!!!SCT: K 168
!!!SCA: Chronologisch-thematisches Verzeichnis sämtlicher Tonwerke Wolfgang Amade Mozarts (L. von Köchel; 1862, 2/1905, 3/1937, 1947)
!!!YOR: Breitkopf & Härtel Edition
!!!EED: Frances Bennion
!!!ENC: Frances Bennion
!!!CDT: 1756/1/27/-1791/12/5/
!!!OCY: Österreich
!!!YEC: Copyright (c) 1994, 2000 Center for Computer Assisted Research in the Humanities
!!!YEM: Rights to all derivative editions reserved.
!!!YEM: Refer to licensing agreement for further details.
!!!YEN: United States of America
**kern	**kern	**kern	**kern
*k[b-e-a-d-]	*k[b-e-a-d-]	*k[b-e-a-d-]	*k[b-e-a-d-]
*f:	*f:	*f:	*f:
*clefG	*clefG	*clefF	*clefC
*M3/4	*M3/4	*M3/4	*M3/4
*tb32	*tb32	*tb32	*tb32
=1	=1	=1	=1
4cc	2.r	2.r	2.r
4f	.	.	.
4dd-	.	.	.
=2	=2	=2	=2
4e	2.r	2.r	4c
4f	.	.	4F
[4b-	.	.	4d-
=3	=3	=3	=3
4b-]	4cc	2.r	4E
4a-	4f	.	4F
[4g	4dd-	.	[4B-
=4	=4	=4	=4
4g]	4e	4c	4B-]
4a-	4f	4F	4A-
4r	[4b-	4d-	[4G
=5	=5	=5	=5
4r	4b-]	4E	4G]
4r	4a-	4F	4A-
[4d-	[4g	[4B-	4r
=6	=6	=6	=6
4d-]	4g]	4B-]	2r
4c	4a-	4A-	.
[4B-	4r	[4G	[4D-
=7	=7	=7	=7
4B-]	2r	4G]	4D-]
4A-	.	4A-	4C
4r	[4d-	4r	[4BB-
=8	=8	=8	=8
4r	4d-]	2r	4BB-]
4ee-	4c	.	4AA-
[4gg	[4B-	[4d-	4r
=9	=9	=9	=9
4gg]	4B-]	4d-]	4r
4aa-	4A-	4c	4E-
4r	4r	[4B-	[4G
=10	=10	=10	=10
4ee-	4d-	4B-]	4G]
4aa-	4c	4A-	4A-
4ff	[4d-	[4B-	4D-
=11	=11	=11	=11
4g	4d-]	4B-]	4E-
4a-	4c	4A-	4F
8r	8r	8r	8r
16r	16r	16r	16r
16dd-	16a-	16f	16F
=12	=12	=12	=12
8.cc	8.a-	8.e-	8.E-
16b-	16f	16d-	16D-
4a-	4e-	4c	4E-
4g	4d-	4B-	4EE-
=13	=13	=13	=13
2g	2d-	2B-	[2AA-
4a-	[4c	4A-	4AA-]
=14	=14	=14	=14
2.r	4c]	2r	2.r
.	2c-	.	.
.	.	[4a-	.
=15	=15	=15	=15
4r	[2.B-	4a-]	2.E-
[2ee-	.	4g	.
.	.	4g-	.
=16	=16	=16	=16
4ee-]	2.B-_	[2.f	2.BB-
4dd	.	.	.
4dd-	.	.	.
=17	=17	=17	=17
2cc	4B-]	2f]	2.F
.	4A	.	.
[4ff	4A-	4c	.
=18	=18	=18	=18
4ff]	2G	2.c	2.C
4ee	.	.	.
[4ee-	[4g	.	.
=19	=19	=19	=19
4ee-]	4g]	2A-	2F
4dd-	4f	.	.
4cc	4e-	4A	4F#
=20	=20	=20	=20
4cc	4e-	2G	2G
4b	4d	.	.
4r	4a-	4e-	[4c
=21	=21	=21	=21
2r	4f#	2d	4c]
.	4g	.	4B
4dd-	4a-	4f	[4F
=22	=22	=22	=22
4b	2g	4d	4F]
4cc	.	4e-	4E-
[4ff	4c	4A	4E-
=23	=23	=23	=23
8ff]	4d	4B	4D
8aa-	.	.	.
8gg	4b	4d	4GG
8ff	.	.	.
4ee-	4cc	4c	4AA-
=24	=24	=24	=24
4dd-	4a-	4f	4F
4cc	4g	4e-	4G
4b-	4e	4d-	4GG
=25	=25	=25	=25
4a-	4f	[2.c	4FF
4g	[2e-	.	4GG
4f#	.	.	4AA-
=26	=26	=26	=26
4.f	4e-]	4c]	4AA
.	4d	2G	4BB
16g	.	.	.
16f	.	.	.
4e-	4c	.	4C
=27	=27	=27	=27
4d-	4A-	4F	4FF
4c	4G	4E-	4GG
4B	4G	8D	4GG
.	.	8F	.
=28	=28	=28	=28
2B	[2G	2F	[2CC
8c	8G]	8E-	8CC]
8r	8r	8r	8r
=29	=29	=29	=29
2r	4r	2.c	2.A-
.	4a-	.	.
[4ee-	4g-	.	.
=30	=30	=30	=30
8ee-]	4.f	2c	2.A
8cc	.	.	.
8ee-	.	.	.
8gg-	8e-	.	.
8ff	8d-	4f	.
8ee-	8c	.	.
=31	=31	=31	=31
4dd-	4B-	4f	2.B-
4r	4b-	4d-	.
[4ff	4a-	4d	.
=32	=32	=32	=32
8ff]	4.g	2.d	2.B
8dd	.	.	.
8ff	.	.	.
8aa-	8f	.	.
8gg	8g	.	.
8ff	8a-	.	.
=33	=33	=33	=33
4ee	4g	4d-	4B-
4ff	4f	4c	4A-
4b	4f	4F	4D-
=34	=34	=34	=34
4cc	4e	4G	4C
4c	4G	4E	4CC
4r	4r	4r	4r
=35	=35	=35	=35
4cc	2.r	2.r	2.r
4f	.	.	.
4dd-	.	.	.
=36	=36	=36	=36
4e	2.r	4c	2.r
4f	.	4F	.
[4b-	.	4d-	.
=37	=37	=37	=37
4b-]	4cc	4E	2.r
4a-	4f	4F	.
[4g	4dd-	[4B-	.
=38	=38	=38	=38
4g]	4e	4B-]	4C
4a-	4f	4A-	4FF
4r	[4b-	[4G	4D-
=39	=39	=39	=39
2r	4b-]	4G]	4EE
.	4a-	4A-	4FF
[4d-	[4g	4r	[4BB-
=40	=40	=40	=40
4d-]	4g]	2r	4BB-]
4c	4a-	.	4AA-
[4B-	4r	[4d-	[4GG
=41	=41	=41	=41
4B-]	2r	4d-]	4GG]
4A-	.	4c	4AA-
4r	[4d-	[4B-	4r
=42	=42	=42	=42
4r	4d-]	4B-]	2r
4cc	4c	4A-	.
[4ee	[4B-	4r	[4D-
=43	=43	=43	=43
4ee]	4B-]	4r	4D-]
4ff	4A-	4c	4C
4r	4r	[4e	[4BB-
=44	=44	=44	=44
4ccc	4g	4e]	4BB-]
4ff	4a-	4f	4AA-
4gg-	4d-	4B-	4BB-
=45	=45	=45	=45
4a	4e-	4c	4C
4b-	4f	4d-	4D-
8r	8r	8r	8r
16r	16r	16r	16r
16dd-	16e	16g	16B-
=46	=46	=46	=46
8.cc	8.f	8.c	8.A-
16b-	16g	16d-	16B-
4a-	4f	4c	4c
4g	4e	4B-	4C
=47	=47	=47	=47
2g	2e	2B-	[2FF
4f	[4f	4A-	4FF]
=48	=48	=48	=48
2.r	4f]	2r	2.r
.	2g-	.	.
.	.	[4e-	.
=49	=49	=49	=49
4r	[2.f	4e-]	2.B-
[2b-	.	4d	.
.	.	4d-	.
=50	=50	=50	=50
4b-]	2.f_	[2.c	2.F
4a	.	.	.
4a-	.	.	.
=51	=51	=51	=51
2g	4f]	2.c_	2C
.	4e	.	.
4g-	[4e-	.	4BB-
=52	=52	=52	=52
2.f	4e-]	4c]	4AA
.	4d	2B-	[2BB-
.	4d-	.	.
=53	=53	=53	=53
4e	2c	4G	4BB-]
4f	.	4A-	4AA-
[4cc	[4a-	4r	4r
=54	=54	=54	=54
4cc]	4a-]	2.c	2E
4b-	4g	.	.
4a-	4f	.	4F
=55	=55	=55	=55
8.a-	8.f	2c	2AA-
32g	32e	.	.
32a-	32f	.	.
4g	4e	.	.
4r	4dd-	4a-	[4F
=56	=56	=56	=56
2r	4b	2g	4F]
.	4cc	.	4E
4gg-	4b-	4d-	[4B-
=57	=57	=57	=57
4ee	4g	2c	4B-]
4ff	4f	.	4A-
[4b-	4f	4d	4A-
=58	=58	=58	=58
8b-]	8g	4e	4G
8dd-	8b-	.	.
8cc	8a-	4c	4E
8b-	8g	.	.
4a-	4f	4c	4F
=59	=59	=59	=59
4g-	4d-	4B-	4BB-
4f	4c	4A-	2C
4e-	4A	4G-	.
=60	=60	=60	=60
4d-	4B-	[2.F	4BB-
4c	4A-	.	4C
4B	4A-	.	4D-
=61	=61	=61	=61
2B-	4A-	4F]	4D
.	4G	4C	4EE
4A-	4A-	4C	4FF
=62	=62	=62	=62
4r	4r	4B-	4BB-
4dd-	4f	2r	2r
4cc	4e-	.	.
=63	=63	=63	=63
4b-	4d-	2.r	2.r
4a-	4c	.	.
4g-	4B-	.	.
=64	=64	=64	=64
[2.f	[2.A-	4c	4C
.	.	4d-	4D-
.	.	4B	4BB
=65	=65	=65	=65
4f]	4A-]	2c	2.C
4g	4B-	.	.
4e	8G	8B-	.
.	8B-	8G	.
=66	=66	=66	=66
2.e	2.B-	2.G	[2.FF
=67	=67	=67	=67
4f	4A-	4F	4FF]
2r	2r	2r	2r
==	==	==	==
*-	*-	*-	*-
!!!RWG1: This file contains only pitch and duration data.
!!!RWG2: Transposing instruments are not transposed.
!!!RWG3: Spines may have incompatible meters.
!!!RWG4: Durations of rests and tied notes may be interpreted.
!!!RWG: Key is interpreted using the Humdrum key tool.
!!!AFT: stage1
!!!END: 1997/04/15
!!format changes:
!!content changes:
!!public access: complete
!!!KEY: 3943664404
!!!EMD: Converted from MuseData to Humdrum Dec 16, 2000, by Andreas Kornstaedt using muse2kern.
